X:1
T:Pennycuick House
T:Pennycuick House
T:Neil Gow Jnr
C:Neil Gow Jnr
L:1/8
Q:3/8=48
M:6/8
K:C
V:1 treble 
V:1
"^Slowly" G |{F} EDE CEG | Tc>de G2 A | c>dc e2 d | cGE D2 G |{F} EDE CEG | Tc>de G2 A | cdc fga | %8
 gec c2 :| f | e2 f gaf | efd cde | (gf).e (ed).c | (cB).A (AG).F |{F} EDE CEG | cde G2 A | %16
 cdc fga | gec c2 :| %18

